svgs/rabo_wallet.svg

<svg xmlns="http://www.w3.org/2000/svg" width="192" height="192" viewBox="0 0 192 192"><defs><style>.cls-4{fill:none;stroke:#000;stroke-width:12px;stroke-linecap:round;stroke-linejoin:round}</style></defs><rect x="102.91" y="102.91" width="67.09" height="67.09" rx="33.55" style="stroke-width:12px;stroke-miterlimit:10;fill:none;stroke:#000"/><path d="M116.01 132.91h19.78m0 7.54h-19.78" style="stroke-width:6px;stroke-linecap:round;stroke-linejoin:round;fill:none;stroke:#000"/><path d="M144 121.6a15.12 15.12 0 0 0-6.74-1.5 16.71 16.71 0 0 0-4 .5 16.35 16.35 0 0 0 0 31.71 17.23 17.23 0 0 0 4 .5 15.26 15.26 0 0 0 6.74-1.5" style="stroke-width:8px;stroke-linecap:round;stroke-linejoin:round;fill:none;stroke:#000"/><path class="cls-4" d="M170 63.65a43 43 0 0 0-29.51-39.33A44.24 44.24 0 0 0 127 22m26 44.27a27.49 27.49 0 0 0-19-25.77 26.72 26.72 0 0 0-9-1.5M22 136.87l20.2-5.15M22 110.52c5.8.4 15.06-.51 20.53-2.5m0-.02a16.08 16.08 0 0 0 3.67-2.39m0 .02 9.42-10.79m0 0a35.37 35.37 0 0 1 6.83-.45m0 0a16 16 0 0 0 12.36-7.12m0 0a6.44 6.44 0 0 0 0-6.06A9.55 9.55 0 0 0 69 77.09m0 0h-6.17m-6 0h6m-6 0c-6 0-12.21.37-13.71.52m0 0A119.78 119.78 0 0 0 22 87.27"/><rect x="62.45" y="139.2" width="9.25" height="9.25" rx="4.62"/><path class="cls-4" d="m45.64 122.26 44.03 14.88m-34.05-42.3-17.11 47a6 6 0 0 0 3.71 7.74L81 162.69a6 6 0 0 0 7.56-3.63l3.19-8.77m19.39-53.23 8.61-23.64a6 6 0 0 0-3.75-7.74L77.24 52.57a6 6 0 0 0-7.56 3.64l-7.36 20.2"/></svg>

<svg xmlns="http://www.w3.org/2000/svg" width="192" height="192" viewBox="0 0 192 192"><defs><style>.cls-2,.cls-4{fill:none;stroke:#000}.cls-4{stroke-width:12px}.cls-2,.cls-4{stroke-linecap:round;stroke-linejoin:round}.cls-2{stroke-width:6px}</style></defs><rect x="102.91" y="102.91" width="67.09" height="67.09" rx="33.55" style="stroke-width:12px;stroke-miterlimit:10;fill:none;stroke:#000"/><path class="cls-2" d="M116.01 132.91h19.78M135.79 140.45h-19.78"/><path d="M144 121.6a15.12 15.12 0 0 0-6.74-1.5 16.71 16.71 0 0 0-4 .5 16.35 16.35 0 0 0 0 31.71 17.23 17.23 0 0 0 4 .5 15.26 15.26 0 0 0 6.74-1.5" style="stroke-width:8px;stroke-linecap:round;stroke-linejoin:round;fill:none;stroke:#000"/><path class="cls-4" d="M170 63.65a43 43 0 0 0-29.51-39.33A44.24 44.24 0 0 0 127 22M153 66.27a27.49 27.49 0 0 0-19-25.77 26.72 26.72 0 0 0-9-1.5M22 136.87l20.2-5.15M22 110.52c5.8.4 15.06-.51 20.53-2.5M42.53 108a16.08 16.08 0 0 0 3.67-2.39M46.2 105.63l9.42-10.79M55.62 94.84a35.37 35.37 0 0 1 6.83-.45M62.45 94.39a16 16 0 0 0 12.36-7.12M74.81 87.27a6.44 6.44 0 0 0 0-6.06A9.55 9.55 0 0 0 69 77.09M69 77.09h-6.17M56.83 77.09h6M56.83 77.09c-6 0-12.21.37-13.71.52M43.12 77.61A119.78 119.78 0 0 0 22 87.27"/><rect x="62.45" y="139.2" width="9.25" height="9.25" rx="4.62"/><path class="cls-4" d="m45.64 122.26 44.03 14.88M55.62 94.84l-17.11 47a6 6 0 0 0 3.71 7.74L81 162.69a6 6 0 0 0 7.56-3.63l3.19-8.77M111.14 97.06l8.61-23.64a6 6 0 0 0-3.75-7.74L77.24 52.57a6 6 0 0 0-7.56 3.64l-7.36 20.2"/></svg>
